src/containers/site/SiteWalletScreen/asset/wallet_feature_4.svg

<svg width="88" height="88" viewBox="0 0 88 88" fill="none" xmlns="http://www.w3.org/2000/svg">
<path fill-rule="evenodd" clip-rule="evenodd" d="M10.9396 79H76.0604C77.1272 79 78 78.1145 78 77.0323V10.9677C78 9.88545 77.1272 9 76.0604 9H10.9396C9.8728 9 9 9.88545 9 10.9677V77.0323C9 78.1145 9.8728 79 10.9396 79ZM74.1209 75.0647H12.8791V12.9353H74.1209V75.0647Z" fill="url(#paint0_linear)"/>
<path d="M84.3655 68H3.63449C1.63552 68 0 66.2403 0 64.0896V23.9104C0 21.7597 1.63552 20 3.63449 20H84.3655C86.3645 20 88 21.7597 88 23.9104V64.1141C88 66.2648 86.3645 68 84.3655 68Z" fill="url(#paint1_linear)"/>
<path d="M10.8671 54C9.84022 54 9 53.1189 9 52.042V34.958C9 33.8811 9.84022 33 10.8671 33H20.1329C21.1598 33 22 33.8811 22 34.958C22 36.035 21.1598 36.9161 20.1329 36.9161H12.7343V52.042C12.7343 53.1189 11.8941 54 10.8671 54Z" fill="white"/>
<path fill-rule="evenodd" clip-rule="evenodd" d="M26 52.042C26 53.1189 26.897 54 27.9934 54C29.0897 54 29.9867 53.1189 29.9867 52.042V45.9231H34.4219C38.0349 45.9231 41 43.035 41 39.4615C41 35.9126 38.0598 33 34.4219 33H27.9934C26.897 33 26 33.8811 26 34.958V52.042ZM34.4219 42.007H29.9867V36.9161H34.4219C35.8422 36.9161 37.0133 38.042 37.0133 39.4615C37.0133 40.8566 35.8671 42.007 34.4219 42.007Z" fill="white"/>
<path d="M17.1818 45H10.8182C9.81818 45 9 44.1 9 43C9 41.9 9.81818 41 10.8182 41H17.1818C18.1818 41 19 41.9 19 43C19 44.125 18.1818 45 17.1818 45Z" fill="white"/>
<path d="M57.1329 54H47.8671C46.8402 54 46 53.1189 46 52.042V34.958C46 33.8811 46.8402 33 47.8671 33H57.1329C58.1598 33 59 33.8811 59 34.958C59 36.035 58.1598 36.9161 57.1329 36.9161H49.7343V50.0839H57.1329C58.1598 50.0839 59 50.965 59 52.042C59 53.1189 58.1598 54 57.1329 54Z" fill="white"/>
<path d="M56.1818 45H49.8182C48.8182 45 48 44.1 48 43C48 41.9 48.8182 41 49.8182 41H56.1818C57.1818 41 58 41.9 58 43C58 44.125 57.1818 45 56.1818 45Z" fill="white"/>
<path d="M76.1329 54H66.8671C65.8402 54 65 53.1189 65 52.042V34.958C65 33.8811 65.8402 33 66.8671 33H76.1329C77.1598 33 78 33.8811 78 34.958C78 36.035 77.1598 36.9161 76.1329 36.9161H68.7343V50.0839H76.1329C77.1598 50.0839 78 50.965 78 52.042C78 53.1189 77.1598 54 76.1329 54Z" fill="white"/>
<path d="M74.1818 45H67.8182C66.8182 45 66 44.1 66 43C66 41.9 66.8182 41 67.8182 41H74.1818C75.1818 41 76 41.9 76 43C76 44.125 75.1818 45 74.1818 45Z" fill="white"/>
<path d="M39.1853 54C38.5707 54 37.9788 53.6742 37.6374 53.1158L33.2667 45.8323C32.7432 44.9481 33.0163 43.8079 33.8586 43.2727C34.7236 42.7375 35.839 43.0167 36.3626 43.8777L40.7333 51.1611C41.2568 52.0453 40.9837 53.1856 40.1414 53.7208C39.8455 53.9069 39.504 54 39.1853 54Z" fill="white"/>
<defs>
<linearGradient id="paint0_linear" x1="9.00233" y1="78.9975" x2="77.9975" y2="78.9975" gradientUnits="userSpaceOnUse">
<stop stop-color="#5C8BFC"/>
<stop offset="1" stop-color="#84B0FF"/>
</linearGradient>
<linearGradient id="paint1_linear" x1="0.00145379" y1="67.9984" x2="87.9985" y2="67.9984" gradientUnits="userSpaceOnUse">
<stop stop-color="#FFB300"/>
<stop offset="1" stop-color="#FF8E37"/>
</linearGradient>
</defs>
</svg>

<svg width="88" height="88" fill="none" xmlns="http://www.w3.org/2000/svg"><path fill-rule="evenodd" clip-rule="evenodd" d="M10.94 79h65.12c1.067 0 1.94-.885 1.94-1.968V10.968C78 9.885 77.127 9 76.06 9H10.94C9.873 9 9 9.885 9 10.968v66.064C9 78.115 9.873 79 10.94 79zm63.18-3.935H12.88v-62.13h61.24v62.13z" fill="url(#paint0_linear)"/><path d="M84.365 68H3.635C1.634 68 0 66.24 0 64.09V23.91C0 21.76 1.636 20 3.634 20h80.731c2 0 3.635 1.76 3.635 3.91v40.204C88 66.264 86.365 68 84.365 68z" fill="url(#paint1_linear)"/><path d="M10.867 54C9.84 54 9 53.119 9 52.042V34.958C9 33.881 9.84 33 10.867 33h9.266C21.16 33 22 33.881 22 34.958s-.84 1.958-1.867 1.958h-7.399v15.126c0 1.077-.84 1.958-1.867 1.958z" fill="#fff"/><path fill-rule="evenodd" clip-rule="evenodd" d="M26 52.042c0 1.077.897 1.958 1.993 1.958 1.097 0 1.994-.881 1.994-1.958v-6.119h4.435c3.613 0 6.578-2.888 6.578-6.462C41 35.913 38.06 33 34.422 33h-6.429C26.897 33 26 33.881 26 34.958v17.084zm8.422-10.035h-4.435v-5.09h4.435c1.42 0 2.591 1.125 2.591 2.544 0 1.396-1.146 2.546-2.591 2.546z" fill="#fff"/><path d="M17.182 45h-6.364C9.818 45 9 44.1 9 43s.818-2 1.818-2h6.364c1 0 1.818.9 1.818 2 0 1.125-.818 2-1.818 2zM57.133 54h-9.266C46.84 54 46 53.119 46 52.042V34.958c0-1.077.84-1.958 1.867-1.958h9.266C58.16 33 59 33.881 59 34.958s-.84 1.958-1.867 1.958h-7.399v13.168h7.399c1.027 0 1.867.881 1.867 1.958S58.16 54 57.133 54z" fill="#fff"/><path d="M56.182 45h-6.364c-1 0-1.818-.9-1.818-2s.818-2 1.818-2h6.364c1 0 1.818.9 1.818 2 0 1.125-.818 2-1.818 2zM76.133 54h-9.266C65.84 54 65 53.119 65 52.042V34.958c0-1.077.84-1.958 1.867-1.958h9.266C77.16 33 78 33.881 78 34.958s-.84 1.958-1.867 1.958h-7.399v13.168h7.399c1.027 0 1.867.881 1.867 1.958S77.16 54 76.133 54z" fill="#fff"/><path d="M74.182 45h-6.364c-1 0-1.818-.9-1.818-2s.818-2 1.818-2h6.364c1 0 1.818.9 1.818 2 0 1.125-.818 2-1.818 2zM39.185 54a1.823 1.823 0 01-1.548-.884l-4.37-7.284c-.524-.884-.25-2.024.592-2.56a1.808 1.808 0 012.504.606l4.37 7.283c.524.884.25 2.025-.592 2.56-.295.186-.637.279-.956.279z" fill="#fff"/><defs><linearGradient id="paint0_linear" x1="9.002" y1="78.998" x2="77.998" y2="78.998" gradientUnits="userSpaceOnUse"><stop stop-color="#5C8BFC"/><stop offset="1" stop-color="#84B0FF"/></linearGradient><linearGradient id="paint1_linear" x1=".001" y1="67.998" x2="87.999" y2="67.998" gradientUnits="userSpaceOnUse"><stop stop-color="#FFB300"/><stop offset="1" stop-color="#FF8E37"/></linearGradient></defs></svg>
